Pods/ProtonCore-UIFoundations/libraries/UIFoundations/Sources/Assets.xcassets/Images/IconSet/ic-text-align-center.imageset/ic-text-align-center.svg

<svg width="24" height="24" viewBox="0 0 24 24" fill="none" xmlns="http://www.w3.org/2000/svg">
<path fill-rule="evenodd" clip-rule="evenodd" d="M16.5 4.5H7.5C7.08579 4.5 6.75 4.16421 6.75 3.75C6.75 3.33579 7.08579 3 7.5 3H16.5C16.9142 3 17.25 3.33579 17.25 3.75C17.25 4.16421 16.9142 4.5 16.5 4.5ZM16.5 15.75H7.5C7.08579 15.75 6.75 15.4142 6.75 15C6.75 14.5858 7.08579 14.25 7.5 14.25H16.5C16.9142 14.25 17.25 14.5858 17.25 15C17.25 15.4142 16.9142 15.75 16.5 15.75ZM22.5 9C22.5 8.58578 22.1642 8.25 21.75 8.25L2.25 8.25C1.83579 8.25 1.5 8.58579 1.5 9C1.5 9.41422 1.83579 9.75 2.25 9.75L21.75 9.75C22.1642 9.75 22.5 9.41421 22.5 9ZM21.75 19.5C22.1642 19.5 22.5 19.8358 22.5 20.25C22.5 20.6642 22.1642 21 21.75 21H2.25C1.83579 21 1.5 20.6642 1.5 20.25C1.5 19.8358 1.83579 19.5 2.25 19.5L21.75 19.5Z" fill="#0C0C14"/>
</svg>

<svg xmlns="http://www.w3.org/2000/svg" width="24" height="24" viewBox="0 0 24 24">
  <g class="ic-text-align-center">
    <path fill-rule="evenodd" d="M16.5 4.5h-9a.75.75 0 0 1 0-1.5h9a.75.75 0 0 1 0 1.5Zm0 11.25h-9a.75.75 0 0 1 0-1.5h9a.75.75 0 0 1 0 1.5Zm6-6.75a.75.75 0 0 0-.75-.75H2.25a.75.75 0 0 0 0 1.5h19.5A.75.75 0 0 0 22.5 9Zm-.75 10.5a.75.75 0 0 1 0 1.5H2.25a.75.75 0 0 1 0-1.5h19.5Z" class="Icon"/>
  </g>
</svg>
